docs/images/icons/t_club.svg

<svg width="100" height="58" viewBox="0 0 100 58" fill="none" xmlns="http://www.w3.org/2000/svg">
<g id="t club 1" clip-path="url(#clip0_245_2960)">
<path id="Vector" d="M8.34661 18.8418H6.87592V15.4536H16.604C17.7564 15.4536 18.253 15.9494 18.253 17.1V20.2149H14.6432V19.3376C14.6501 19.2708 14.6421 19.2033 14.6196 19.1399C14.5971 19.0766 14.5608 19.0191 14.5132 18.9716C14.4657 18.9241 14.408 18.8877 14.3445 18.8653C14.2812 18.8429 14.2135 18.8348 14.1465 18.8418H12.3957V22.2491H17.0115V25.6183H12.3957V31.6002H8.34661V18.8418Z" fill="white"/>
<path id="Vector_2" d="M19.5454 28.2119H21.2389V18.8418H19.5454V15.4536H26.7397V18.8418H25.0653V28.2119H26.7397V31.6002H19.5454V28.2119Z" fill="white"/>
<path id="Vector_3" d="M37.9894 28.2119H38.9635C39.0314 28.221 39.1005 28.2145 39.1656 28.193C39.2306 28.1715 39.2899 28.1355 39.3389 28.0877C39.388 28.04 39.4256 27.9817 39.4487 27.9173C39.472 27.8529 39.4801 27.7841 39.4728 27.7161V15.4536H43.1017L47.5583 22.3826C48.0589 23.1621 48.52 23.9662 48.9399 24.7919H48.9845C48.8803 23.9883 48.8186 23.1799 48.7998 22.3699V17.1C48.7998 15.9494 49.2964 15.4536 50.4551 15.4536H54.3197V18.8418H53.3456C53.2786 18.8348 53.211 18.8429 53.1475 18.8653C53.0842 18.8877 53.0265 18.9241 52.9789 18.9716C52.9314 19.0191 52.895 19.0766 52.8725 19.1399C52.85 19.2033 52.842 19.2708 52.849 19.3376V31.6002H49.2328L44.7316 24.6901C44.2311 23.9031 43.7762 23.0881 43.3692 22.2491H43.3246C43.4289 23.0505 43.4906 23.8569 43.5092 24.6647V29.9283C43.5092 31.0789 43.0126 31.5747 41.8539 31.5747H37.9894V28.2119Z" fill="white"/>
<path id="Vector_4" d="M56.8536 18.8418H55.3893V15.4536H65.5759C66.7282 15.4536 67.2248 15.9494 67.2248 17.1V20.2149H63.5958V19.3376C63.6029 19.2708 63.5948 19.2033 63.5724 19.1399C63.5499 19.0766 63.5135 19.0191 63.4659 18.9716C63.4183 18.9241 63.3607 18.8877 63.2973 18.8653C63.2338 18.8429 63.1662 18.8348 63.0993 18.8418H60.9028V21.7787H65.5185V25.1669H60.9028V27.7097C60.8958 27.7766 60.9038 27.8441 60.9263 27.9075C60.9488 27.9707 60.9852 28.0283 61.0327 28.0758C61.0803 28.1233 61.1379 28.1597 61.2013 28.182C61.2648 28.2045 61.3324 28.2125 61.3993 28.2055H63.6659C63.7328 28.2125 63.8004 28.2045 63.8639 28.182C63.9274 28.1597 63.9849 28.1233 64.0325 28.0758C64.0802 28.0283 64.1165 27.9707 64.139 27.9075C64.1615 27.8441 64.1695 27.7766 64.1625 27.7097V26.8325H67.7851V29.9537C67.7851 31.1043 67.2821 31.6002 66.1298 31.6002H58.5026C57.3502 31.6002 56.8536 31.1043 56.8536 29.9537V18.8418Z" fill="white"/>
<path id="Vector_5" d="M71.1976 26.381C71.1976 26.381 72.872 28.2881 74.9029 28.2881C75.7176 28.2881 76.5331 27.9957 76.5331 27.093C76.5331 25.3067 69.2048 25.1033 69.2048 20.0432C69.2048 17.1317 71.7515 15.1865 74.9728 15.1865C77.125 15.1865 80.1301 16.2227 80.1301 18.6892V20.4501H76.514V19.7508C76.514 19.1596 75.6735 18.8036 74.9287 18.8036C74.1838 18.8036 73.2794 19.1405 73.2794 19.8843C73.2794 21.8486 80.6074 21.5816 80.6074 26.8769C80.6074 29.5595 78.5 31.8671 74.8772 31.8671C73.761 31.8725 72.6555 31.6413 71.6349 31.1887C70.6142 30.7362 69.7013 30.0726 68.9565 29.2417L71.1976 26.381Z" fill="white"/>
<path id="Vector_6" d="M83.9559 26.381C83.9559 26.381 85.6243 28.2881 87.6618 28.2881C88.4765 28.2881 89.2912 27.9957 89.2912 27.093C89.2912 25.3067 81.9632 25.1033 81.9632 20.0432C81.9632 17.1317 84.5103 15.1865 87.7316 15.1865C89.8772 15.1865 92.8882 16.2227 92.8882 18.6892V20.4501H89.2721V19.7508C89.2721 19.1596 88.4316 18.8036 87.6868 18.8036C86.9419 18.8036 86.0316 19.1405 86.0316 19.8843C86.0316 21.8486 93.3662 21.5816 93.3662 26.8769C93.3662 29.5595 91.2588 31.8671 87.636 31.8671C86.5191 31.8725 85.414 31.6413 84.3934 31.1887C83.3728 30.7362 82.4603 30.0726 81.7155 29.2417L83.9559 26.381Z" fill="white"/>
<path id="Vector_7" d="M45.7949 33.3672C47.6029 33.3672 51.6266 34.0728 51.6266 36.9208V38.9168H48.2205V38.0905C48.2205 37.2195 46.8581 36.8763 45.8777 36.8763C43.6621 36.8763 41.8794 38.3002 41.8794 41.0655C41.8794 43.551 43.7257 45.5725 45.9668 45.5725C47.61 45.5366 49.1718 44.8506 50.3088 43.6654L52.2188 46.3862C51.3991 47.2488 50.4116 47.9351 49.3168 48.4029C48.222 48.8708 47.043 49.1104 45.8521 49.1069C41.039 49.1069 37.8685 45.6615 37.8685 41.0909C37.8548 40.0566 38.0519 39.0303 38.4479 38.0745C38.8438 37.1186 39.4303 36.2532 40.1718 35.5307C40.9132 34.8083 41.794 34.244 42.7607 33.872C43.7273 33.5001 44.7596 33.3284 45.7949 33.3672Z" fill="white"/>
<path id="Vector_8" d="M54.3707 37.2832C54.3776 37.2203 54.3704 37.1566 54.3496 37.0968C54.3287 37.037 54.2949 36.9826 54.2503 36.9376C54.2058 36.8926 54.1518 36.858 54.0922 36.8364C54.0327 36.8148 53.969 36.8067 53.9059 36.8128H52.9891V33.6343H56.6627C57.7449 33.6343 58.2161 34.0983 58.2161 35.1854V45.1658C58.2092 45.2287 58.2164 45.2923 58.2372 45.3521C58.258 45.4119 58.2919 45.4663 58.3364 45.5113C58.381 45.5564 58.4349 45.5909 58.4945 45.6125C58.5541 45.6341 58.6177 45.6422 58.6808 45.6362H60.6863C60.7494 45.6422 60.813 45.6341 60.8727 45.6125C60.9322 45.5909 60.9862 45.5564 61.0308 45.5113C61.0752 45.4663 61.1091 45.4119 61.1299 45.3521C61.1508 45.2923 61.158 45.2287 61.1511 45.1658V44.3394H64.5572V47.2699C64.5572 48.357 64.0924 48.821 63.0038 48.821H55.9241C54.8418 48.821 54.3707 48.357 54.3707 47.2699V37.2832Z" fill="white"/>
<path id="Vector_9" d="M65.9133 37.2831C65.9204 37.2197 65.913 37.1554 65.8919 37.0951C65.8707 37.0348 65.8362 36.98 65.791 36.9349C65.7458 36.8897 65.6909 36.8552 65.6305 36.8341C65.5702 36.8129 65.5058 36.8057 65.4422 36.8127H64.5254V33.6342H68.1671C69.2558 33.6342 69.7205 34.0983 69.7205 35.1853V43.1315C69.7036 43.463 69.7544 43.7944 69.8697 44.1057C69.9851 44.417 70.1627 44.7015 70.3916 44.9421C70.6206 45.1827 70.8962 45.3743 71.2017 45.5052C71.5072 45.6361 71.8361 45.7036 72.1685 45.7036C72.5009 45.7036 72.8298 45.6361 73.1352 45.5052C73.4407 45.3743 73.7162 45.1827 73.9456 44.9421C74.1743 44.7015 74.3515 44.417 74.4669 44.1057C74.5824 43.7944 74.6331 43.463 74.6162 43.1315V35.179C74.6162 34.0919 75.0875 33.6279 76.1699 33.6279H79.8118V36.8064H78.8949C78.8316 36.8003 78.7677 36.8084 78.7081 36.83C78.6486 36.8516 78.5949 36.8861 78.55 36.9312C78.5059 36.9763 78.4721 37.0307 78.4515 37.0905C78.4302 37.1502 78.4228 37.2139 78.4302 37.2768V43.2269C78.4302 46.6469 75.9596 49.0752 72.1908 49.0752C68.4217 49.0752 65.9133 46.6469 65.9133 43.2269V37.2831Z" fill="white"/>
<path id="Vector_10" d="M82.2816 36.8128H80.9V33.6343H87.5596C90.603 33.6343 92.7361 34.9947 92.7361 37.6073C92.7537 38.254 92.5993 38.8938 92.2883 39.4612C91.9772 40.0287 91.5213 40.5034 90.9655 40.8367V40.8812C91.6875 41.1059 92.314 41.564 92.7456 42.1831C93.178 42.8023 93.3919 43.5474 93.353 44.3012C93.353 47.6195 90.5838 48.8273 87.5596 48.8273H83.8353C82.753 48.8273 82.2816 48.3633 82.2816 47.2762V36.8128ZM87.6044 39.5145C87.7831 39.5155 87.9603 39.4787 88.1243 39.4066C88.2883 39.3346 88.4353 39.2288 88.5552 39.0962C88.6758 38.9636 88.7662 38.8072 88.8221 38.6372C88.8772 38.4672 88.8963 38.2874 88.8772 38.1096C88.8853 37.9329 88.8544 37.7567 88.7868 37.593C88.7199 37.4293 88.6184 37.282 88.489 37.1613C88.3596 37.0406 88.2052 36.9492 88.0375 36.8934C87.8691 36.8376 87.6912 36.8188 87.5155 36.8382H86.0699V39.5399L87.6044 39.5145ZM86.5853 45.6362H87.9478C88.1566 45.6443 88.364 45.6079 88.5574 45.5294C88.75 45.451 88.9243 45.3323 89.0677 45.1812C89.2111 45.0302 89.3206 44.8502 89.389 44.6535C89.4574 44.4569 89.4824 44.2478 89.4633 44.0406C89.4838 43.8367 89.4603 43.6307 89.3934 43.437C89.3258 43.2433 89.2177 43.0665 89.075 42.9189C88.9331 42.7713 88.7596 42.6564 88.5684 42.5822C88.3772 42.5081 88.1721 42.4764 87.9669 42.4895H86.1206V45.1658C86.114 45.2287 86.1213 45.2923 86.1419 45.3521C86.1625 45.4119 86.1963 45.4663 86.2412 45.5113C86.2861 45.5564 86.3397 45.5909 86.3993 45.6125C86.4588 45.6341 86.5228 45.6422 86.5853 45.6362Z" fill="white"/>
<path id="Vector_11" d="M96.6573 57.3776H3.34246C2.90299 57.3776 2.46783 57.291 2.06189 57.1229C1.65595 56.9548 1.2872 56.7084 0.976735 56.3978C0.666276 56.0872 0.420205 55.7185 0.252606 55.3129C0.0850066 54.9073 -0.000831029 54.4726 6.06396e-06 54.0338V3.33738C0.0016888 2.45277 0.35438 1.60487 0.980846 0.979356C1.60732 0.353836 2.45651 0.00168018 3.34246 0H96.6573C97.5434 0.00168018 98.3926 0.353836 99.0191 0.979356C99.6456 1.60487 99.9985 2.45277 100 3.33738V54.0338C100 54.9195 99.6478 55.7691 99.0213 56.3959C98.3949 57.0228 97.5448 57.3759 96.6573 57.3776ZM3.34246 1.50023C2.85448 1.50023 2.38649 1.69379 2.04143 2.03832C1.69638 2.38285 1.50252 2.85014 1.50252 3.33738V54.0338C1.50168 54.2756 1.54865 54.5152 1.64075 54.7388C1.73284 54.9624 1.86824 55.1657 2.03917 55.337C2.21011 55.5082 2.41323 55.6441 2.63687 55.7368C2.86052 55.8296 3.1003 55.8773 3.34246 55.8773H96.6573C96.9 55.8773 97.1397 55.8296 97.3632 55.7368C97.5868 55.6441 97.7897 55.5082 97.961 55.337C98.1316 55.1657 98.2669 54.9624 98.3596 54.7388C98.4515 54.5152 98.4985 54.2756 98.4978 54.0338V3.33738C98.4978 2.85014 98.3037 2.38285 97.9588 2.03832C97.6132 1.69379 97.1456 1.50023 96.6573 1.50023H3.34246Z" fill="#F18916"/>
<path id="Vector_12" d="M34.9143 6.06472L30.0057 29.8777L27.5928 41.6062L26.3895 47.461C26.033 49.1709 25.2817 51.7138 27.3763 52.6863C27.8704 52.9563 28.4493 53.027 28.9939 52.8839C29.5387 52.7408 30.0078 52.3949 30.3049 51.9171C30.5866 51.4263 30.6637 50.8446 30.5196 50.2975C30.3755 49.7504 30.0217 49.2819 29.5346 48.993L29.6746 49.0947L30.2222 50.0355C30.2243 50.1169 30.2068 50.1975 30.1712 50.2707L30.3049 49.635L30.6042 48.1729L31.1198 45.6302L32.2403 40.195L34.526 29.1149L39.0462 7.16446C39.1713 6.62509 39.088 6.05846 38.8131 5.5777C38.5381 5.09693 38.0917 4.73739 37.5628 4.57084C37.0152 4.4275 36.4331 4.50347 35.9407 4.78254C35.4483 5.06161 35.0846 5.52171 34.9271 6.06472H34.9143Z" fill="#F18916"/>
<path id="Vector_13" d="M17.8264 13.6292C24.0318 12.4469 30.271 11.4637 36.5442 10.6796C39.6087 10.3067 42.6795 9.9782 45.7566 9.6943C47.2889 9.55443 48.8275 9.42522 50.3725 9.3065L52.9191 9.13485L54.1924 9.05226L54.8291 9.00777C56.6436 8.90601 59.0628 8.48011 60.1579 6.82097C61.1511 5.30166 59.2857 4.44983 57.9678 4.50069C44.8686 5.21762 31.8312 6.79758 18.9406 9.23022C17.4508 9.51633 14.7386 10.1457 14.3503 11.9446C13.9619 13.7437 16.8014 13.8199 17.8201 13.6292H17.8264Z" fill="#F18916"/>
</g>
<defs>
<clipPath id="clip0_245_2960">
<rect width="100" height="58" fill="white"/>
</clipPath>
</defs>
</svg>

<svg width="100" height="58" fill="none" xmlns="http://www.w3.org/2000/svg"><g clip-path="url(#a)"><path d="M8.347 18.842H6.876v-3.388h9.728c1.152 0 1.649.495 1.649 1.646v3.115h-3.61v-.877a.452.452 0 0 0-.497-.496h-1.75v3.407h4.616v3.37h-4.616V31.6h-4.05V18.842Zm11.198 9.37h1.694v-9.37h-1.694v-3.388h7.195v3.388h-1.675v9.37h1.675V31.6h-7.195v-3.388Zm18.445 0h.974a.453.453 0 0 0 .509-.496V15.454h3.629l4.456 6.929c.5.78.962 1.583 1.382 2.409h.044a22.981 22.981 0 0 1-.184-2.422V17.1c0-1.15.496-1.646 1.655-1.646h3.865v3.388h-.974a.454.454 0 0 0-.497.496V31.6h-3.616l-4.501-6.91a24.57 24.57 0 0 1-1.363-2.44h-.044c.104.8.166 1.607.184 2.415v5.263c0 1.15-.496 1.647-1.655 1.647h-3.865v-3.363Zm18.864-9.37h-1.465v-3.388h10.187c1.152 0 1.649.495 1.649 1.646v3.115h-3.63v-.877a.45.45 0 0 0-.496-.496h-2.196v2.937h4.616v3.388h-4.616v2.543a.45.45 0 0 0 .496.495h2.267a.452.452 0 0 0 .496-.495v-.878h3.623v3.122c0 1.15-.503 1.646-1.655 1.646h-7.627c-1.153 0-1.65-.496-1.65-1.646V18.842Zm14.344 7.539s1.674 1.907 3.705 1.907c.815 0 1.63-.292 1.63-1.195 0-1.786-7.328-1.99-7.328-7.05 0-2.911 2.546-4.856 5.768-4.856 2.152 0 5.157 1.036 5.157 3.502v1.761h-3.616v-.7c0-.59-.84-.946-1.585-.946s-1.65.337-1.65 1.08c0 1.965 7.328 1.698 7.328 6.993 0 2.683-2.107 4.99-5.73 4.99a7.905 7.905 0 0 1-5.92-2.625l2.24-2.861Zm12.758 0s1.668 1.907 3.706 1.907c.814 0 1.63-.292 1.63-1.195 0-1.786-7.329-1.99-7.329-7.05 0-2.911 2.547-4.856 5.769-4.856 2.145 0 5.156 1.036 5.156 3.502v1.761h-3.616v-.7c0-.59-.84-.946-1.585-.946s-1.655.337-1.655 1.08c0 1.965 7.334 1.698 7.334 6.993 0 2.683-2.107 4.99-5.73 4.99a7.904 7.904 0 0 1-5.92-2.625l2.24-2.861Zm-38.161 6.986c1.808 0 5.832.706 5.832 3.554v1.996H48.22v-.827c0-.87-1.362-1.214-2.342-1.214-2.216 0-3.999 1.424-3.999 4.19 0 2.485 1.847 4.506 4.088 4.506a6.205 6.205 0 0 0 4.342-1.907l1.91 2.721a8.741 8.741 0 0 1-6.367 2.72c-4.813 0-7.983-3.445-7.983-8.015a7.617 7.617 0 0 1 2.303-5.56 7.643 7.643 0 0 1 5.623-2.164Zm8.575 3.916a.426.426 0 0 0-.464-.47h-.917v-3.179h3.674c1.082 0 1.553.464 1.553 1.551v9.98a.426.426 0 0 0 .465.471h2.005a.428.428 0 0 0 .465-.47v-.827h3.406v2.93c0 1.088-.465 1.552-1.553 1.552h-7.08c-1.082 0-1.553-.464-1.553-1.551v-9.987Zm11.543 0a.426.426 0 0 0-.47-.47h-.918v-3.179h3.642c1.089 0 1.553.464 1.553 1.551v7.947a2.446 2.446 0 0 0 2.448 2.572 2.454 2.454 0 0 0 2.299-1.598 2.47 2.47 0 0 0 .15-.974v-7.953c0-1.087.47-1.551 1.553-1.551h3.642v3.178h-.917a.428.428 0 0 0-.444.285c-.02.06-.028.123-.02.186v5.95c0 3.42-2.471 5.848-6.24 5.848-3.77 0-6.278-2.428-6.278-5.848v-5.944Zm16.369-.47H80.9v-3.179h6.66c3.043 0 5.176 1.36 5.176 3.973a3.65 3.65 0 0 1-1.77 3.23v.044a3.402 3.402 0 0 1 2.387 3.42c0 3.319-2.77 4.526-5.793 4.526h-3.725c-1.082 0-1.553-.464-1.553-1.55V36.812Zm5.322 2.701a1.274 1.274 0 0 0 1.218-.877c.055-.17.074-.35.055-.527a1.223 1.223 0 0 0-1.362-1.271H86.07v2.7l1.534-.025Zm-1.019 6.122h1.363a1.468 1.468 0 0 0 1.441-.983c.068-.196.093-.405.074-.612a1.415 1.415 0 0 0-.388-1.122 1.411 1.411 0 0 0-1.108-.43H86.12v2.677a.433.433 0 0 0 .12.345.429.429 0 0 0 .344.125Z" fill="#fff"/><path d="M96.657 57.378H3.342a3.347 3.347 0 0 1-3.09-2.065A3.333 3.333 0 0 1 0 54.033V3.338A3.341 3.341 0 0 1 .98.98 3.351 3.351 0 0 1 3.343 0h93.315a3.352 3.352 0 0 1 2.362.98 3.34 3.34 0 0 1 .98 2.356v50.697a3.35 3.35 0 0 1-3.343 3.344ZM3.342 1.5a1.841 1.841 0 0 0-1.84 1.837v50.697a1.834 1.834 0 0 0 1.135 1.703c.224.093.463.14.705.14h93.315a1.84 1.84 0 0 0 1.84-1.843V3.337a1.836 1.836 0 0 0-1.84-1.837H3.342Z" fill="#F18916"/><path d="m34.914 6.065-4.908 23.813-2.413 11.728-1.203 5.855c-.357 1.71-1.108 4.253.986 5.225a2.205 2.205 0 0 0 2.929-.769 2.152 2.152 0 0 0-.77-2.924l.14.102.547.94a.508.508 0 0 1-.05.236l.133-.636.3-1.462.515-2.543 1.12-5.435 2.286-11.08 4.52-21.95a2.197 2.197 0 0 0-1.483-2.594 2.174 2.174 0 0 0-2.636 1.494h-.013Z" fill="#F18916"/><path d="M17.826 13.63a296.4 296.4 0 0 1 18.718-2.95c3.065-.373 6.136-.702 9.213-.986 1.532-.14 3.07-.269 4.616-.388l2.546-.171 1.273-.083.637-.044c1.815-.102 4.234-.528 5.329-2.187.993-1.52-.872-2.371-2.19-2.32A298.392 298.392 0 0 0 18.94 9.23c-1.49.285-4.202.915-4.59 2.714-.39 1.799 2.45 1.875 3.47 1.684h.005Z" fill="#F18916"/></g><defs><clipPath id="a"><path fill="#fff" d="M0 0h100v58H0z"/></clipPath></defs></svg>
